X:1
T:Title
%%score { ( 1 4 ) | ( 2 3 ) }
L:1/8
Q:1/4=100
M:6/8
K:F
V:1 treble nm="Grand Piano"
V:4 treble 
V:2 bass 
V:3 bass 
V:1
 [CFA]2 A AG[FA] | [FAc]2 [Ac] .[A,CF]3 | [B,CF]2 [CE] [B,CE]2 D | [B,CE]6 | %4
w: John~D.~Creswell * * * *||||
 [EGB]2 [GB] [EG]A[GB] | [FBd]2 [Ac] .[FAc]3 | [EGc]2 [Gc] [DG=B]2 [GB] | [EGc]6 | [Ac]3 [FA]3 | %9
w: |||||
 [Ac]3 .[FA]3 | [Bd]2 [Ac] [GB]2 [FA] | [Ac]2 [GB] [GB]2 [GB] | [GB]2 [GB] [EG]A[GB] | %13
w: ||||
 [Bd]2 [Ac] [Ac]2 [GB]/B/ | [FA]2 [CA] [CA]2 [B,G] | [A,F]6 |] %16
w: |||
V:2
 F,,2 [CF] FEC | F,,2 F .F,3 | G,,2 B, G,2 B, | G,,2 G, .G,3 | C,2[K:treble] E z FE | F,,2 F .F,3 | %6
 G,2 E F,,2 F | C,2 G,, .C,,3 | F,,2 F, F,,2 F, | F,,2 F, F,,2 F, | F,,2 F, F,,2 F, | C,2 C C,2 C | %12
 C,2 C z[K:treble] FC | F,,2 F, F,,2 z/ G/ | C,2 C,, C,2 C,, | F,,2 C, .F,,3 |] %16
V:3
 z3 .[F,C]3 | x6 | x6 | x6 | z3[K:treble] .C3 | x6 | x6 | x6 | x6 | x6 | x6 | x6 | %12
 z3 .C,3[K:treble] | z3 z2 B,, | x6 | x6 |] %16
V:4
 x6 | x6 | x6 | x6 | x6 | x6 | x6 | x6 | C6 | C6 | F6 | E6 | x6 | x6 | x6 | x6 |] %16

